images/twitter.svg

<svg width="20" height="16" viewBox="0 0 20 16" fill="none" xmlns="http://www.w3.org/2000/svg">
<path d="M20 2.13681C18.7419 2.19348 18.7694 2.18886 18.6272 2.20049L19.3723 0.120645C19.3723 0.120645 17.0465 0.95691 16.4569 1.1065C14.9084 -0.253862 12.6068 -0.313968 10.9613 0.674576C9.61377 1.48429 8.8905 2.87479 9.13174 4.50004C6.50921 4.14432 4.29957 2.92922 2.55503 0.880846L2.00327 0.233102L1.59098 0.973167C1.06989 1.90832 0.896853 2.97755 1.10361 3.98384C1.18845 4.39668 1.33265 4.79042 1.53238 5.15912L1.05905 4.97984L1.0029 5.75287C0.945987 6.53812 1.21347 7.45478 1.71854 8.20469C1.86075 8.41588 2.04386 8.6478 2.27595 8.87659L2.03135 8.8399L2.32981 9.72569C2.72212 10.8895 3.53694 11.7899 4.59437 12.2904C3.53831 12.7285 2.68519 13.008 1.2829 13.4588L-6.10352e-05 13.8711L1.18494 14.5043C1.63675 14.7458 3.23329 15.5522 4.81074 15.7942C8.31723 16.3317 12.2651 15.8939 14.9229 13.5543C17.1616 11.5836 17.8961 8.78039 17.7435 5.86324C17.7205 5.42161 17.8442 5.00012 18.092 4.67663C18.5884 4.02888 19.9969 2.14113 20 2.13681ZM17.155 3.99055C16.7435 4.52763 16.5373 5.21355 16.5742 5.9217C16.7282 8.86421 15.9091 11.1462 14.1395 12.7038C12.0724 14.5236 8.73822 15.2378 4.99217 14.6635C4.31376 14.5595 3.61262 14.3267 3.03233 14.0942C4.20802 13.6988 5.11592 13.3464 6.58214 12.668L8.62896 11.7211L6.36913 11.5797C5.28667 11.512 4.38533 10.9992 3.83128 10.1667C4.12547 10.15 4.40913 10.1035 4.69157 10.0265L6.84688 9.43977L4.67357 8.91955C3.6175 8.66674 3.01554 8.04913 2.69648 7.57544C2.48698 7.26417 2.3501 6.94529 2.26801 6.65133C2.48591 6.70845 2.73997 6.74917 3.14967 6.78884L5.16124 6.98333L3.56745 5.76808C2.41907 4.89259 1.95887 3.57727 2.29624 2.3128C5.88024 5.94631 10.0883 5.67322 10.5119 5.76927C10.4187 4.88409 10.4162 4.882 10.3918 4.79773C9.84937 2.92341 11.0382 1.9717 11.5744 1.64955C12.6944 0.976747 14.4722 0.875327 15.7036 1.98378C15.9695 2.22302 16.3292 2.31713 16.6658 2.23539C16.9679 2.16201 17.2159 2.08431 17.4586 1.99974L16.9533 3.41037L17.5984 3.41082C17.4766 3.57041 17.3306 3.76146 17.155 3.99055Z" fill="white"/>
</svg>

<svg width="20" height="16" fill="none" xmlns="http://www.w3.org/2000/svg"><path d="M20 2.137c-1.258.056-1.23.052-1.373.063l.745-2.08s-2.325.837-2.915.987c-1.549-1.36-3.85-1.421-5.496-.432-1.347.81-2.07 2.2-1.83 3.825C6.51 4.144 4.3 2.93 2.556.88L2.003.234l-.412.74a4.384 4.384 0 00-.487 3.01c.084.414.229.807.428 1.176l-.473-.18-.056.774c-.057.785.21 1.702.716 2.452.142.21.325.443.557.672l-.245-.037.299.886a4.337 4.337 0 002.264 2.564c-1.056.439-1.909.718-3.311 1.169L0 13.87l1.185.633c.452.242 2.048 1.048 3.626 1.29 3.506.538 7.454.1 10.112-2.24 2.239-1.97 2.973-4.774 2.82-7.69-.022-.442.101-.864.349-1.187.496-.648 1.905-2.536 1.908-2.54zM17.155 3.99a2.921 2.921 0 00-.58 1.93c.153 2.943-.666 5.225-2.435 6.783-2.068 1.82-5.402 2.534-9.148 1.96-.678-.104-1.38-.337-1.96-.57 1.176-.395 2.084-.748 3.55-1.426l2.047-.947-2.26-.141c-1.082-.068-1.984-.58-2.538-1.413.294-.017.578-.063.86-.14l2.156-.587-2.173-.52c-1.057-.253-1.658-.87-1.978-1.345a3.205 3.205 0 01-.428-.924c.218.057.472.098.882.138l2.011.194-1.594-1.215c-1.148-.875-1.608-2.19-1.27-3.455 3.583 3.633 7.791 3.36 8.215 3.456-.093-.885-.096-.887-.12-.971-.543-1.875.646-2.826 1.182-3.148 1.12-.673 2.898-.775 4.13.334.265.239.625.333.962.251.302-.073.55-.15.793-.235l-.506 1.41h.645l-.443.58z" fill="#fff"/></svg>
